usr/share/icons/biglinux-icons-material-dark/symbolic/status/network-bluetooth-symbolic.svg

<?xml version="1.0" encoding="UTF-8" standalone="no"?>
<svg
   id="svg4153"
   width="22"
   height="22"
   version="1.1"
   viewBox="0 0 22 22"
   xmlns="http://www.w3.org/2000/svg"
   xmlns:svg="http://www.w3.org/2000/svg"
   xmlns:rdf="http://www.w3.org/1999/02/22-rdf-syntax-ns#"
   xmlns:cc="http://creativecommons.org/ns#"
   xmlns:dc="http://purl.org/dc/elements/1.1/">
  <metadata
     id="metadata870">
    <rdf:RDF>
      <cc:Work
         rdf:about="">
        <dc:format>image/svg+xml</dc:format>
        <dc:type
           rdf:resource="http://purl.org/dc/dcmitype/StillImage" />
      </cc:Work>
    </rdf:RDF>
  </metadata>
  <defs
     id="defs4157">
    <style
       id="current-color-scheme"
       type="text/css">.ColorScheme-Text {
        color:#31363b;
      }
      .ColorScheme-Background {
        color:#eff0f1;
      }
      .ColorScheme-Highlight {
        color:#3498db;
      }
      .ColorScheme-ViewText {
        color:#31363b;
      }
      .ColorScheme-ViewBackground {
        color:#fcfcfc;
      }
      .ColorScheme-ViewHover {
        color:#93cee9;
      }
      .ColorScheme-ViewFocus{
        color:#3daee9;
      }
      .ColorScheme-ButtonText {
        color:#31363b;
      }
      .ColorScheme-ButtonBackground {
        color:#eff0f1;
      }
      .ColorScheme-ButtonHover {
        color:#93cee9;
      }
      .ColorScheme-ButtonFocus{
        color:#3daee9;
      }
      .ColorScheme-NegativeText{
        color:#e74c3c;
      }</style>
  </defs>
  <g
     id="network-bluetooth"
     transform="translate(-66)">
    <rect
       id="rect4645"
       x="66"
       width="22"
       height="22"
       fill="none"
       y="0" />
    <path
       id="rect4163-9"
       class="ColorScheme-Text"
       d="m 76.998,3 v 7.041 L 73.705,6.748 73.703,6.74995 C 73.34725,6.394 72.70695,5.75386 72.70695,5.75386 l -0.70703,0.70703 4.5449,4.541 -4.5449,4.541 0.70703,0.70703 c 0,0 0.64035,-0.64009 0.99609,-0.99609 h 0.002 l 3.2949,-3.293 v 7.0391 h 1 l 4,-4 -4,-4 4,-4 -4,-4 z M 78,4.416 80.5859,7.0019 78,9.5878 Z m 0,8 2.5859,2.5859 L 78,17.5878 Z"
       fill="currentColor" />
  </g>
</svg>

<svg xmlns="http://www.w3.org/2000/svg" id="svg4153" width="22" height="22" version="1.1">
<defs id="defs4157">
<style id="current-color-scheme" type="text/css">
.ColorScheme-Contrast{color:#31363b}
</style>
</defs>
<g id="network-bluetooth" transform="translate(-66)">
<path id="rect4645" fill="none" d="M66 0h22v22H66z"/>
<path id="rect4163-9" fill="currentColor" d="M76.998 3v7.041l-3.293-3.293-.002.002-.996-.996L72 6.46 76.545 11 72 15.544l.707.707.996-.996h.002L77 11.96V19h1l4-4-4-4 4-4-4-4zM78 4.416l2.586 2.586L78 9.588Zm0 8 2.586 2.586L78 17.588Z" class="ColorScheme-Contrast"/>
</g>
</svg>
